X: 726
T: Mollie McCarthy   #2
R: reel
%S: s:2 b:10(5+5)
B: Francis O'Neill: "The Dance Music of Ireland" (1907) #726
Z: Frank Nordberg - http://www.musicaviva.com
F: http://www.musicaviva.com/abc/tunes/ireland/oneill-1001/0726/oneill-1001-0726-1.abc
M: C|
L: 1/8
K: D
"^A"\
|: DAFA DAFA | DAFA (GE)E2 | DAFA DAFA | dBAG (FD)D2 "^B":| afdf gfed |
| gefd (Be)e2 |[1 afdf gfed | (fa)eg (fd)d2 :|[2 af{a}ge fdec | dBAG FDD2 |]
